X: 2
T: Nancy Hanks
P: piffero primo a0594
O: cfd bk1
F: http://ancients.sudburymuster.org/mus/med/pdf/bellnancC0.pdf
Z: 2020 John Chambers <jc:trillian.mit.edu>
M: 2/8
L: 1/16
K: D
A2 |:\
A2FA d2Ad | f2df a3f | g2gf e2A2 | f2fe d2A2 |\
A2FA d2Ad | f2df a2f2 | g2gf e2c2 |1 d2f2 d2z2 :|[2 d2f2 d2 ||
|: A2 |\
g2gf e2A2 | f2fe e2A2 | cdef g2f2 | edcB A4 |\
d2de f2d2 | cdef g2e2 | a2f2 g2fe | d2f2 d2 :|

% %sep 1 1 200
% %center - - - - - - - - - -
% Whatever we want at the bottom of each set belongs here.
